!!!COM: Balekana, Panapasa
!!!CDT: b.1929
!!!OTL: National Anthem, Solomon Islands
!!!ENC: Davis, Matthew J.
!!Vocal Line Only
**kern
*clefG2
*k[f#]
*G:
*M4/4
=1-
4g
=2
4.g
8g
8g
8g
4a
=3
2b
4cc
4cc
=4
2b
2a
=5
2.b
4r
=6
2b
4.b
8b
=7
2.b
4b
=8
2a
4b
4cc
=9
2.b
4r
=10
2.cc
4a
=11
2g
4.f#
8f#
=12
2.g
4r
=13
2a
2a
=14
2b
2b
=15
4.cc
8cc
4cc
4cc
=16
2.b
4b
=17
4a
4a
4b
4cc#
=18
2.dd
4ee
=19
2dd
2cc#
=20
2.dd
4r
=21
2dd
8cc
8cc
4cc
=22
4cc
2.b
=23
2cc
8b
8b
4b
=24
4b
2a
8b
8cc
=25
4dd
4dd
8ee
8ee
4dd
=26
2dd
2cc
=27
4b
4b
4.a
8g
=28
1g
==|!
*-
